!!!OTL: Fruehlings Ankunft.
!!!OTL-incipit: DER LENZ THUT SEINEN FREUDENGRUSS
!!!COM: J. Gersbach
!!!ARE: Europa, Mitteleuropa, Deutschland
!!!SCT: F0991
!!!TXL: @@DE
!!!YEM: Copyright 1995, estate of Helmut Schaffrath.
**kern	**text
*ICvox	*
*M2/4	*
*k[]	*
*C:	*
!LO:TX:a:t=Einzelne.	!
!LO:TX:a:t=Bequem.	!
!LO:TX:a:t=Zweitstimmig.	!
{8c	Der
=1	=1
8e	Lenʒ
8g	thut
8cc/	ſei-
8g	-nen
=2	=2
8.ee/	Freu-
16dd/	-den-
8cc/}	-gruß
{8g	an
=3	=3
4a	Feld
4b/	und
=4	=4
4.cc/}	Wald,
!LO:TX:a:t=Alle.	!
{8c	der
=5	=5
8e	Lenʒ
8g	thut
8cc/	ſei-
8g	-nen
=6	=6
8.ee/	Freuden-
16dd/	.
8cc/}	-gruß
{8g	an
=7	=7
4a	Feld
4b/	und
=8	=8
4.cc/}	Wald,
!LO:TX:a:t=Einzelne.	!
{8ee/	in
=9	=9
8dd/	die-
8b/	-ſen
8b/	hel-
8g	-len
=10	=10
4cc/	Ta-
8b/}	-gen,
!LO:TX:a:t=Alle.	!
{8ee/	in
=11	=11
8dd/	die-
8b/	-ſen
8cc/	hel-
8b/	-len
=12	=12
4a	Ta-
8g	-gen;
8r	.
=13	=13
8r}	.
!LO:TX:a:t=Einzelne.	!
{8g	das
8.g	ſieht
16g	der
=14	=14
8.g	Win-
16g	-ter
8g	mit
8g	Ver-
=15	=15
8cc/}	-druß
{8g	und
8e	ma-
8c	-chet
=16	=16
2g	Halt;
=17	=17
8r}	.
{8g	das
8.g	ſieht
16g	der
=18	=18
8.g	Win-
16g	-ter
8g	mit
8g	Ver-
=19	=19
8cc}/	-druß
{8g	und
8e	ma-
8c	-chet
=20	=20
4.g}	Halt;
{8ee/	es
=21	=21
8ee/	hilft
8cc/	ihm
8cc/	nicht
8g	ſein
=22	=22
4a	Kla-
8g}	-gen,
{8cc/	es
=23	=23
8g	hilft
8e	ihm
8f	nicht
8e	ſein
=24	=24
4d	Kla-
8c}	-gen;
!LO:TX:a:t=Einzelne.	!
{8c	wird
=25	=25
8e	er
8g	nicht
8cc/	bald
8g	auf
=26	=26
8.ee/	flücht'gen
16dd/	.
8cc/}	Fuß
{8g	ſich
=27	=27
4a	ſe-
4b/	-tʒen
=28	=28
4.cc/}	bald,
!LO:TX:a:t=Alle.	!
{8c	wird
=29	=29
8e	er
8g	nicht
8cc/	bald
8g	auf
=30	=30
8.ee/	flücht'gen
16dd/	.
8cc/}	Fuß
{8g	ſich
=31	=31
4a	ſe-
4b/	-tʒen
=32	=32
4.cc/}	bald,
{8ee/	ſo
=33	=33
8dd/	wird
8cc/	man
8b/	ihn
8a/	ver-
=34	=34
(8.gL	-ja-
16fJ)	.
8e}	-gen,
{8g	ſo
=35	=35
8a	wird
8b/	man
8cc/	ihn
8dd/	ver-
=36	=36
(4ee/	-ja-
4dd/)	.
=37	=37
[4cc/	-gen.
8cc/]	.
8r}	.
==	==
!!!AGN: Natur -, Jahreszeiten - Lied, Fruehling
!!!ONB: ESAC (Essen Associative Code) Database: FINK
!!!AMT: simple duple
!!!AIN: vox
!!!EED: Helmut Schaffrath
!!!EEV: 1.0
!!Text: Fr. Rueckert
!!!GTL: Lieder um Preise der Natur.
!!!source: Musikalischer Hausschatz der Deutschen. Eine Sammlung von über 1000 Liedern und Gesängen mit Singstimmen und Klavierbegleitung. Leipzig, Litterarisches Verlags-Haus.
!!!page: 746
!!!ENC: Anna Maria Matuszewska
!!!EEV: 2025/03/20
*-	*-
